X: 1
T:Polska efter Fritiof Mesch "Godnattl\aa{}ten"
T:(the "Goodnight" tune)
M:3/4
L:1/8
Q:1/4=136
C:efter Johan Persa Bergstr\"om
R:Polska
A:H\"ogv\aa{}len, H\"arjedalen (Sweden)
N:Pick Halvars godnattl\aa{}t, sista dansen p\aa{} danskv\"allen (the last tune
N:played in a dance night)
K:Dm
A|\
d>^c d>e f>g|a>b a2 g2|a2 (f/g/f/e/) f>g|(ag) [e3e3]:|\
g|\
(fe) (d^c) df|e>(^c e)d (fa)|{ab}(ag) (ef) fd|e>^c A3 g|\
(fe) (d^c) df|e>(^c e)d (fa)|{ab}(ag) (ef) fd|e>^c d3|]
